X: 1142
T: An Buachaill As Danmhairg
R: reel
M: 4/4
K: Emixolydian
B2GB EBGB|A2FA DAFA|BA=GF EFGA|Be^df e=dBA|
B~E3 BEGB|A2FA dAFA|BABc dAFA|1 dfec dAFA:|2 ~B3c dcd^d||
e2ef geBe|~g3a b2bg|a2a=g f~d3|Adfa geef|
gece dB=GB|dAFA DFAd|BABc dAFA|1 ~B3c dcd^d:|2 dfec dAFA||

